X:1158
T:Queen's Grand March.
M:C
L:1/8
Q:1/2=66
I: :: ::
Z:Jack Campin * www.campin.me.uk * 2009
K:D
(AB/c/)|d4  A3 G|F2D2 F2A2|d2df e2eg|   gfed  cABc|
        d4  A3 G|F2D2 F2A2|d3 e fagf|{f}e6       :|
 ef    |g3e dcBA|f2d2 f2d2|g3 e dcBA|   a2f2  a2f2|
        d3f e3 f|dcBA a3 g|f2fg e2ef|   d2d>d d2 :|

